frontend/svgs/biz034.svg

<?xml version="1.0" encoding="UTF-8"?> <svg width="100px" height="100px" viewBox="0 0 100 100" version="1.1" xmlns="http://www.w3.org/2000/svg" xmlns:xlink="http://www.w3.org/1999/xlink"> <g id="34.-Contacts-book" stroke="none" stroke-width="1" fill="none" fill-rule="evenodd" stroke-linecap="round"> <path d="M83.8,21.2 L83.8,88.4 L11.8,88.4 C10.2296149,88.4 8.83536654,89.1541312 7.95964846,90.32 L7,90.32 L7,6.79547364 C7,4.13944131 9.15090642,2 11.804184,2 L83.32,2 L93.4,2 L93.4,21.2 L83.8,21.2 L83.8,21.2 Z" id="Layer-1" stroke="#C8D6E5" stroke-width="4" fill="#C8D6E5" stroke-linejoin="round"></path> <path d="M64.1953931,65.36 C63.6642276,56.5065918 52.1930019,57.7950337 50.4854753,53.2045941 C50.3431815,51.6335138 50.0114569,49.4208797 50.0114569,49.4208797 L52.6814575,44.5311605 C52.6814575,44.5311605 54.0408731,43.7459497 54.2991462,41.5910746 C54.4385162,40.4342058 53.8560959,39.5655606 53.5188789,39.3608914 C54.4291698,36.6231961 56.2561846,27.1188623 45.6776973,26.96 C37.0484507,27.1188623 35.8871079,32.0805128 37.7788368,39.3608914 C37.4425944,39.5655606 36.9178515,40.4342058 37.0562469,41.5910746 C37.3154946,43.7459497 38.8380174,44.5311605 38.8380174,44.5311605 L41.2448843,49.2033302 C41.2448843,49.2033302 41.0628916,51.6335138 40.9205978,53.2045941 C39.2130712,57.7950337 27.6921401,56.5065918 27.16,65.36 L64.1953931,65.36 Z" id="Layer-2" stroke="#A4B8CE" stroke-width="4" fill="#A4B8CE" stroke-linejoin="round"></path> <rect id="Layer-3" stroke="#FEC957" stroke-width="4" fill="#FEC957" x="84" y="21" width="9.6" height="19.2"></rect> <rect id="Layer-4" stroke="#FF8D8D" stroke-width="4" fill="#FF8D8D" x="84" y="40" width="9.6" height="19.2"></rect> <rect id="Layer-5" stroke="#4A95F2" stroke-width="4" fill="#4A95F2" x="84" y="60" width="9.6" height="19.2"></rect> <path d="M11.8,88.4 C9.1490332,88.4 7,90.5490332 7,93.2 C7,95.8509668 9.1490332,98 11.8,98 L83.8,98 L83.8,88.4 L11.8,88.4 L11.8,88.4 Z" id="Layer-7" stroke="#A4B8CE" stroke-width="4" fill="#A4B8CE" stroke-linejoin="round"></path> <rect id="Layer-6" stroke="#FFFFFF" stroke-width="4" fill="#FFFFFF" x="84" y="79" width="9.6" height="19.2"></rect> </g> </svg>

<svg width="100" height="100" xmlns="http://www.w3.org/2000/svg"><g fill="none" fill-rule="evenodd" stroke-linecap="round" stroke-width="4"><path d="M83.8 21.2v67.2h-72c-1.57 0-2.965.754-3.84 1.92H7V6.795A4.795 4.795 0 0111.804 2H93.4v19.2h-9.6 0z" stroke="#C8D6E5" fill="#C8D6E5" stroke-linejoin="round"/><path d="M64.195 65.36c-.53-8.853-12.002-7.565-13.71-12.155-.142-1.571-.474-3.784-.474-3.784l2.67-4.89s1.36-.785 1.618-2.94c.14-1.157-.443-2.025-.78-2.23.91-2.738 2.737-12.242-7.841-12.401-8.63.159-9.79 5.12-7.9 12.4-.335.206-.86 1.074-.722 2.231.26 2.155 1.782 2.94 1.782 2.94l2.407 4.672s-.182 2.43-.324 4.002c-1.708 4.59-13.229 3.302-13.761 12.155h37.035z" stroke="#A4B8CE" fill="#A4B8CE" stroke-linejoin="round"/><path stroke="#FEC957" fill="#FEC957" d="M84 21h9.6v19.2H84z"/><path stroke="#FF8D8D" fill="#FF8D8D" d="M84 40h9.6v19.2H84z"/><path stroke="#4A95F2" fill="#4A95F2" d="M84 60h9.6v19.2H84z"/><path d="M11.8 88.4a4.8 4.8 0 100 9.6h72v-9.6h-72 0z" stroke="#A4B8CE" fill="#A4B8CE" stroke-linejoin="round"/><path stroke="#FFF" fill="#FFF" d="M84 79h9.6v19.2H84z"/></g></svg>
